X:1
T: The Humors of Kilkenny
C:
R:Jig
Q:180
K:G
M:6/8
L:1/16
c2|B2G2G2 G4B2|d2e2d2 d4c2|B2G2G2 G2B2d2|e6 g6|G2B2d2 g2f2e2|e2d2c2 c2B2A2|B2G2E2 E2D2E2|c6 e2d2c2|
B2G2G2 G4B2|d2e2d2 d4c2|B2G2G2 G2B2d2|e6 g6|G2B2d2 g2f2e2|e2d2c2 c2B2A2|B2G2E2 E2D2E2|c6 e2d2c2|
B2G2E2 E2D2E2|G2E2D2 D4c2|C2G2E2 E2D2E2|c6 e2d2c2|B2G2E2 E2D2E2|G2E2D2 D4c2|B2A2G2 A2G2F2|G6 G6|
B2G2E2 E2D2E2|G2E2D2 D4c2|C2G2E2 E2D2E2|c6 e2d2c2|B2G2E2 E2D2E2|G2E2D2 D4c2|B2A2G2 A2G2F2|G6 G4||
